**kern	**kern	**dynam
*part1	*part1	*part1
*staff2	*staff1	*
*I"Piano	*	*
*clefF4	*clefG2	*
*k[b-e-a-d-]	*k[b-e-a-d-]	*
*M3/4	*M3/4	*
=1	=1	=1
!	!	!LO:DY:a
8AA-L	2.r	p
8EE-	.	.
8AA-	.	.
8C	.	.
8E-	.	.
8A-J	.	.
=	=	=
4c	4g-X 4a-	.
4d-	4f 4a-	.
8dnL	8a-L 8b-	.
8e-J	8gnJ 8b-	.
=	=	=
8enL	8gL 8dd-	>
8fJ	8a-J 8cc	.
4r	4r	]
*clefG2	*	*
8ddnL	8aa-L 8bb-	<
8ee-XJ	8ggJ 8bb-	.
=	=	=
8eenL	8ggL 8ddd-	[ >
8ffJ	8aa-J 8ccc	.
4r	4r	]
4r	4r	.
*clefF4	*	*
=	=	=
2.D- 2.F 2.B-	12ccL	.
.	12an	.
.	12b-J	.
.	12ccL	.
.	12dd-	.
.	12ee-J	.
!	!	!LO:DY:a
.	(8.ggL	>
.	16ffJk)	.
=	=	=
*	*^	*
2EE- 2E-	2a-	8cL	]
.	.	8e-	.
.	.	8c	.
.	.	8e-J	.
[4E- 4G	(8.ccL	4d- [4e-	>
.	16b-Jk)	.	.
*	*v	*v	*
=	=	=
8AA-L 8E-] 8A-	8cL 8e-] 8a-	]
8C	8c	.
8AA-	8A-<	.
8FF	8F<	.
8EE-	8E-<	.
8CCJ	8CJ<	.
=	=	=
*-	*-	*-
!!!system-decoration: {(s1,s2)}
!!!RDF**kern: < = below
